X:273
T:Antrim Rose, The
R:reel
Z:transcribed by Dave Marshall
M:C|
K:D
|: f~d3 edBd | A~d3 ABde | f~d3 edBd | Adgf e2de |
f~d3 edBd | Addc defg | ~a3b afeg |1 fedB A2de :|2 fedB A4 |
|: e3f edBd | e2df efgf | e3f edBd | Addc d2cd |
e3f edBd | e2df efgf | eaab afeg | fedB A4 :| 

